static/img/kroki/bcdbadcab7cb7b796670b59ef2ae4e24.svg

<?xml version="1.0" encoding="us-ascii" standalone="no"?><svg xmlns="http://www.w3.org/2000/svg" xmlns:xlink="http://www.w3.org/1999/xlink" contentStyleType="text/css" height="352px" preserveAspectRatio="none" style="width:995px;height:352px;" version="1.1" viewBox="0 0 995 352" width="995px" zoomAndPan="magnify"><defs/><g><!--class azure_compute_proximity_placement_group--><g id="elem_azure_compute_proximity_placement_group"><rect codeLine="23" fill="#3D176E" height="39.7891" id="azure_compute_proximity_placement_group" rx="2.5" ry="2.5" style="stroke:#000D19;stroke-width:0.5;" width="414" x="7" y="106.79"/><ellipse cx="22" cy="126.6845" fill="#ADD1B2" rx="11" ry="11" style="stroke:#181818;stroke-width:1.0;"/><path d="M24.9688,132.3252 Q24.3906,132.622 23.75,132.7627 Q23.1094,132.9189 22.4063,132.9189 Q19.9063,132.9189 18.5781,131.2783 Q17.2656,129.622 17.2656,126.497 Q17.2656,123.372 18.5781,121.7158 Q19.9063,120.0595 22.4063,120.0595 Q23.1094,120.0595 23.75,120.2158 Q24.4063,120.372 24.9688,120.6689 L24.9688,123.3877 Q24.3438,122.8095 23.75,122.5439 Q23.1563,122.2627 22.5313,122.2627 Q21.1875,122.2627 20.5,123.3408 Q19.8125,124.4033 19.8125,126.497 Q19.8125,128.5908 20.5,129.6689 Q21.1875,130.7314 22.5313,130.7314 Q23.1563,130.7314 23.75,130.4658 Q24.3438,130.1845 24.9688,129.6064 L24.9688,132.3252 Z " fill="#000000"/><text fill="#D9B8FF" font-family="Helvetica" font-size="17" lengthAdjust="spacing" textLength="372" x="41" y="132.5698">azure_compute_proximity_placement_group</text></g><!--class azure_compute_virtual_machine_scale_set--><g id="elem_azure_compute_virtual_machine_scale_set"><rect codeLine="26" fill="#3D176E" height="39.7891" id="azure_compute_virtual_machine_scale_set" rx="2.5" ry="2.5" style="stroke:#000D19;stroke-width:0.5;" width="399" x="274.5" y="206.58"/><ellipse cx="289.5" cy="226.4745" fill="#ADD1B2" rx="11" ry="11" style="stroke:#181818;stroke-width:1.0;"/><path d="M292.4688,232.1152 Q291.8906,232.412 291.25,232.5527 Q290.6094,232.7089 289.9063,232.7089 Q287.4063,232.7089 286.0781,231.0683 Q284.7656,229.412 284.7656,226.287 Q284.7656,223.162 286.0781,221.5058 Q287.4063,219.8495 289.9063,219.8495 Q290.6094,219.8495 291.25,220.0058 Q291.9063,220.162 292.4688,220.4589 L292.4688,223.1777 Q291.8438,222.5995 291.25,222.3339 Q290.6563,222.0527 290.0313,222.0527 Q288.6875,222.0527 288,223.1308 Q287.3125,224.1933 287.3125,226.287 Q287.3125,228.3808 288,229.4589 Q288.6875,230.5214 290.0313,230.5214 Q290.6563,230.5214 291.25,230.2558 Q291.8438,229.9745 292.4688,229.3964 L292.4688,232.1152 Z " fill="#000000"/><text fill="#D9B8FF" font-family="Helvetica" font-size="17" lengthAdjust="spacing" textLength="357" x="308.5" y="232.3598">azure_compute_virtual_machine_scale_set</text></g><!--class azure_compute_virtual_machine_scale_set_instance--><g id="elem_azure_compute_virtual_machine_scale_set_instance"><rect codeLine="29" fill="#3D176E" height="39.7891" id="azure_compute_virtual_machine_scale_set_instance" rx="2.5" ry="2.5" style="stroke:#000D19;stroke-width:0.5;" width="478" x="361" y="306.37"/><ellipse cx="376" cy="326.2645" fill="#ADD1B2" rx="11" ry="11" style="stroke:#181818;stroke-width:1.0;"/><path d="M378.9688,331.9052 Q378.3906,332.202 377.75,332.3427 Q377.1094,332.4989 376.4063,332.4989 Q373.9063,332.4989 372.5781,330.8583 Q371.2656,329.202 371.2656,326.077 Q371.2656,322.952 372.5781,321.2958 Q373.9063,319.6395 376.4063,319.6395 Q377.1094,319.6395 377.75,319.7958 Q378.4063,319.952 378.9688,320.2489 L378.9688,322.9677 Q378.3438,322.3895 377.75,322.1239 Q377.1563,321.8427 376.5313,321.8427 Q375.1875,321.8427 374.5,322.9208 Q373.8125,323.9833 373.8125,326.077 Q373.8125,328.1708 374.5,329.2489 Q375.1875,330.3114 376.5313,330.3114 Q377.1563,330.3114 377.75,330.0458 Q378.3438,329.7645 378.9688,329.1864 L378.9688,331.9052 Z " fill="#000000"/><text fill="#D9B8FF" font-family="Helvetica" font-size="17" lengthAdjust="spacing" textLength="436" x="395" y="332.1498">azure_compute_virtual_machine_scale_set_instance</text></g><!--class azure_container_service_managed_cluster--><g id="elem_azure_container_service_managed_cluster"><rect codeLine="32" fill="#3D176E" height="39.7891" id="azure_container_service_managed_cluster" rx="2.5" ry="2.5" style="stroke:#000D19;stroke-width:0.5;" width="395" x="301.5" y="7"/><ellipse cx="316.5" cy="26.8945" fill="#ADD1B2" rx="11" ry="11" style="stroke:#181818;stroke-width:1.0;"/><path d="M319.4688,32.5352 Q318.8906,32.832 318.25,32.9727 Q317.6094,33.1289 316.9063,33.1289 Q314.4063,33.1289 313.0781,31.4883 Q311.7656,29.832 311.7656,26.707 Q311.7656,23.582 313.0781,21.9258 Q314.4063,20.2695 316.9063,20.2695 Q317.6094,20.2695 318.25,20.4258 Q318.9063,20.582 319.4688,20.8789 L319.4688,23.5977 Q318.8438,23.0195 318.25,22.7539 Q317.6563,22.4727 317.0313,22.4727 Q315.6875,22.4727 315,23.5508 Q314.3125,24.6133 314.3125,26.707 Q314.3125,28.8008 315,29.8789 Q315.6875,30.9414 317.0313,30.9414 Q317.6563,30.9414 318.25,30.6758 Q318.8438,30.3945 319.4688,29.8164 L319.4688,32.5352 Z " fill="#000000"/><text fill="#D9B8FF" font-family="Helvetica" font-size="17" lengthAdjust="spacing" textLength="353" x="335.5" y="32.7798">azure_container_service_managed_cluster</text></g><!--class azure_network_load_balancer--><g id="elem_azure_network_load_balancer"><rect codeLine="35" fill="#3D176E" height="39.7891" id="azure_network_load_balancer" rx="2.5" ry="2.5" style="stroke:#000D19;stroke-width:0.5;" width="291" x="527.5" y="106.79"/><ellipse cx="542.5" cy="126.6845" fill="#ADD1B2" rx="11" ry="11" style="stroke:#181818;stroke-width:1.0;"/><path d="M545.4688,132.3252 Q544.8906,132.622 544.25,132.7627 Q543.6094,132.9189 542.9063,132.9189 Q540.4063,132.9189 539.0781,131.2783 Q537.7656,129.622 537.7656,126.497 Q537.7656,123.372 539.0781,121.7158 Q540.4063,120.0595 542.9063,120.0595 Q543.6094,120.0595 544.25,120.2158 Q544.9063,120.372 545.4688,120.6689 L545.4688,123.3877 Q544.8438,122.8095 544.25,122.5439 Q543.6563,122.2627 543.0313,122.2627 Q541.6875,122.2627 541,123.3408 Q540.3125,124.4033 540.3125,126.497 Q540.3125,128.5908 541,129.6689 Q541.6875,130.7314 543.0313,130.7314 Q543.6563,130.7314 544.25,130.4658 Q544.8438,130.1845 545.4688,129.6064 L545.4688,132.3252 Z " fill="#000000"/><text fill="#D9B8FF" font-family="Helvetica" font-size="17" lengthAdjust="spacing" textLength="249" x="561.5" y="132.5698">azure_network_load_balancer</text></g><!--class azure_network_subnet--><g id="elem_azure_network_subnet"><rect codeLine="38" fill="#3D176E" height="39.7891" id="azure_network_subnet" rx="2.5" ry="2.5" style="stroke:#000D19;stroke-width:0.5;" width="233" x="755.5" y="7"/><ellipse cx="770.5" cy="26.8945" fill="#ADD1B2" rx="11" ry="11" style="stroke:#181818;stroke-width:1.0;"/><path d="M773.4688,32.5352 Q772.8906,32.832 772.25,32.9727 Q771.6094,33.1289 770.9063,33.1289 Q768.4063,33.1289 767.0781,31.4883 Q765.7656,29.832 765.7656,26.707 Q765.7656,23.582 767.0781,21.9258 Q768.4063,20.2695 770.9063,20.2695 Q771.6094,20.2695 772.25,20.4258 Q772.9063,20.582 773.4688,20.8789 L773.4688,23.5977 Q772.8438,23.0195 772.25,22.7539 Q771.6563,22.4727 771.0313,22.4727 Q769.6875,22.4727 769,23.5508 Q768.3125,24.6133 768.3125,26.707 Q768.3125,28.8008 769,29.8789 Q769.6875,30.9414 771.0313,30.9414 Q771.6563,30.9414 772.25,30.6758 Q772.8438,30.3945 773.4688,29.8164 L773.4688,32.5352 Z " fill="#000000"/><text fill="#D9B8FF" font-family="Helvetica" font-size="17" lengthAdjust="spacing" textLength="191" x="789.5" y="32.7798">azure_network_subnet</text></g><!--link azure_compute_proximity_placement_group to azure_compute_virtual_machine_scale_set--><g id="link_azure_compute_proximity_placement_group_azure_compute_virtual_machine_scale_set"><path codeLine="41" d="M265.37,147.01 C310.95,164.15 371.5744,186.9469 417.1244,204.0869 " fill="none" id="azure_compute_proximity_placement_group-to-azure_compute_virtual_machine_scale_set" style="stroke:#1A83AF;stroke-width:2.0;"/><polygon fill="#1A83AF" points="422.74,206.2,415.7253,199.2866,418.0603,204.4391,412.9079,206.7741,422.74,206.2" style="stroke:#1A83AF;stroke-width:2.0;"/></g><!--link azure_compute_proximity_placement_group to azure_compute_virtual_machine_scale_set_instance--><g id="link_azure_compute_proximity_placement_group_azure_compute_virtual_machine_scale_set_instance"><path codeLine="42" d="M215.41,146.83 C218.41,173.23 227.79,220.51 257,246.37 C286.74,272.7 368.8018,291.6425 448.2118,304.8925 " fill="none" id="azure_compute_proximity_placement_group-to-azure_compute_virtual_machine_scale_set_instance" style="stroke:#1A83AF;stroke-width:2.0;"/><polygon fill="#1A83AF" points="454.13,305.88,445.911,300.4533,449.1982,305.0571,444.5944,308.3442,454.13,305.88" style="stroke:#1A83AF;stroke-width:2.0;"/></g><!--link azure_compute_virtual_machine_scale_set to azure_compute_virtual_machine_scale_set_instance--><g id="link_azure_compute_virtual_machine_scale_set_azure_compute_virtual_machine_scale_set_instance"><path codeLine="43" d="M498.89,246.8 C520.98,263.94 548.3404,285.1708 570.4204,302.3108 " fill="none" id="azure_compute_virtual_machine_scale_set-to-azure_compute_virtual_machine_scale_set_instance" style="stroke:#1A83AF;stroke-width:2.0;"/><polygon fill="#1A83AF" points="575.16,305.99,570.5034,297.3115,571.2104,302.924,565.5978,303.6309,575.16,305.99" style="stroke:#1A83AF;stroke-width:2.0;"/></g><!--link azure_container_service_managed_cluster to azure_compute_virtual_machine_scale_set--><g id="link_azure_container_service_managed_cluster_azure_compute_virtual_machine_scale_set"><path codeLine="44" d="M496.56,47.2 C491.78,84.97 481.9937,162.3075 477.2037,200.1375 " fill="none" id="azure_container_service_managed_cluster-to-azure_compute_virtual_machine_scale_set" style="stroke:#1A83AF;stroke-width:2.0;"/><polygon fill="#1A83AF" points="476.45,206.09,481.5489,197.6638,477.0781,201.1296,473.6122,196.6588,476.45,206.09" style="stroke:#1A83AF;stroke-width:2.0;"/></g><!--link azure_container_service_managed_cluster to azure_network_load_balancer--><g id="link_azure_container_service_managed_cluster_azure_network_load_balancer"><path codeLine="45" d="M533.38,47.22 C563.88,64.36 602.9794,86.3404 633.4594,103.4704 " fill="none" id="azure_container_service_managed_cluster-to-azure_network_load_balancer" style="stroke:#1A83AF;stroke-width:2.0;"/><polygon fill="#1A83AF" points="638.69,106.41,632.8039,98.5135,634.3312,103.9603,628.8844,105.4876,638.69,106.41" style="stroke:#1A83AF;stroke-width:2.0;"/></g><!--link azure_network_load_balancer to azure_compute_virtual_machine_scale_set--><g id="link_azure_network_load_balancer_azure_compute_virtual_machine_scale_set"><path codeLine="46" d="M633.68,147.01 C598.8,164.15 553.4847,186.4132 518.6147,203.5532 " fill="none" id="azure_network_load_balancer-to-azure_compute_virtual_machine_scale_set" style="stroke:#1A83AF;stroke-width:2.0;"/><polygon fill="#1A83AF" points="513.23,206.2,523.0715,205.8196,517.7172,203.9944,519.5425,198.6401,513.23,206.2" style="stroke:#1A83AF;stroke-width:2.0;"/></g><!--link azure_network_load_balancer to azure_compute_virtual_machine_scale_set_instance--><g id="link_azure_network_load_balancer_azure_compute_virtual_machine_scale_set_instance"><path codeLine="47" d="M682.17,146.68 C692.49,170.9 705.97,213.57 691,246.37 C679.36,271.86 659.9783,288.9608 639.3783,302.6408 " fill="none" id="azure_network_load_balancer-to-azure_compute_virtual_machine_scale_set_instance" style="stroke:#1A83AF;stroke-width:2.0;"/><polygon fill="#1A83AF" points="634.38,305.96,644.0902,304.3133,638.5452,303.194,639.6646,297.649,634.38,305.96" style="stroke:#1A83AF;stroke-width:2.0;"/></g><!--link azure_network_subnet to azure_compute_virtual_machine_scale_set--><g id="link_azure_network_subnet_azure_compute_virtual_machine_scale_set"><path codeLine="48" d="M871.85,47 C870.57,73.36 864.16,120.59 836,146.58 C806.4,173.9 725.0377,192.4513 643.5977,205.2113 " fill="none" id="azure_network_subnet-to-azure_compute_virtual_machine_scale_set" style="stroke:#1A83AF;stroke-width:2.0;"/><polygon fill="#1A83AF" points="637.67,206.14,647.1807,208.6987,642.6097,205.366,645.9424,200.7951,637.67,206.14" style="stroke:#1A83AF;stroke-width:2.0;"/></g><!--link azure_network_subnet to azure_compute_virtual_machine_scale_set_instance--><g id="link_azure_network_subnet_azure_compute_virtual_machine_scale_set_instance"><path codeLine="49" d="M877.99,46.93 C884.57,71.56 892.11,115.06 875,146.58 C829.57,230.27 731.7329,278.7597 665.4729,303.7897 " fill="none" id="azure_network_subnet-to-azure_compute_virtual_machine_scale_set_instance" style="stroke:#1A83AF;stroke-width:2.0;"/><polygon fill="#1A83AF" points="659.86,305.91,669.6928,306.4715,664.5374,304.1431,666.8658,298.9877,659.86,305.91" style="stroke:#1A83AF;stroke-width:2.0;"/></g><!--link azure_network_subnet to azure_network_load_balancer--><g id="link_azure_network_subnet_azure_network_load_balancer"><path codeLine="50" d="M832.68,47.22 C797.8,64.36 752.4853,86.6345 717.6153,103.7645 " fill="none" id="azure_network_subnet-to-azure_network_load_balancer" style="stroke:#1A83AF;stroke-width:2.0;"/><polygon fill="#1A83AF" points="712.23,106.41,722.0716,106.0319,716.7177,104.2054,718.5442,98.8515,712.23,106.41" style="stroke:#1A83AF;stroke-width:2.0;"/></g><!--SRC=[jP9DJ-Cm48Rl-HMMUaPgjuAs5wHI2S458TWRMbaJUz9QzKSqdhIK5Vzz4rXGI49RQBduu7dcdNS-5aQZG9VpHZXqAL9CujBu70YSc1A5zIpOGAANPP0DHytWPV2y4xW1X-8AxGhPA6WIlnT6BJt6A7xLGXUWbdCAXTUlyapWOnb2ppLgPY76AJEPj62icT6JT9nbJR8fsXlgmUWCMrWWZVGVwVVxUZ1f8ZjBRUtxdRWtJoW6zQ7T1CQMpLQ95sghougecMmr-XR_rECjQ6tyN9pM_kvUFP57-l1_lm0TrXMTWOtrCf6HCF0cnrchAvoCTJRgXAy_WnDLZKx0Kq4eLN1vkNQPKtWqpl16vXOKkl96P9MSYxz9yjoPiZB41LZfG2sCHnaLsF95_aQAD3uoU8LTkPwXXAdaQ6KKbjaUvgYbiaNLRZl58wy3BQKDe6KAjXBUWiKYzM-kzvtAoKDlC1qFfvT_JixtRV97nTydcEoxfUDKsRMSWmRr3V7EtIVRxk80XySJR0wsSPj7y7Y0qjVDTM_X7m00]--></g></svg>

<svg xmlns="http://www.w3.org/2000/svg" width="995" height="352" viewBox="0 0 995 352"><rect width="414" height="39.789" x="7" y="106.79" fill="#3D176E" rx="2.5" ry="2.5" style="stroke:#000d19;stroke-width:.5"/><circle cx="22" cy="126.684" r="11" fill="#ADD1B2" style="stroke:#181818;stroke-width:1"/><path d="M24.969 132.325q-.578.297-1.219.438-.64.156-1.344.156-2.5 0-3.828-1.64-1.312-1.657-1.312-4.782t1.312-4.781q1.328-1.656 3.828-1.656.703 0 1.344.156.656.156 1.219.453v2.719q-.625-.579-1.219-.844-.594-.281-1.219-.281-1.343 0-2.031 1.078-.687 1.062-.687 3.156t.687 3.172q.688 1.062 2.031 1.062.625 0 1.219-.265.594-.281 1.219-.86z"/><text x="41" y="132.57" fill="#D9B8FF" font-family="Helvetica" font-size="17" textLength="372">azure_compute_proximity_placement_group</text><rect width="399" height="39.789" x="274.5" y="206.58" fill="#3D176E" rx="2.5" ry="2.5" style="stroke:#000d19;stroke-width:.5"/><circle cx="289.5" cy="226.475" r="11" fill="#ADD1B2" style="stroke:#181818;stroke-width:1"/><path d="M292.469 232.115q-.578.297-1.219.438-.64.156-1.344.156-2.5 0-3.828-1.64-1.312-1.657-1.312-4.782t1.312-4.781q1.328-1.656 3.828-1.656.703 0 1.344.156.656.156 1.219.453v2.719q-.625-.578-1.219-.844-.594-.281-1.219-.281-1.344 0-2.031 1.078-.687 1.062-.687 3.156t.687 3.172q.688 1.062 2.031 1.062.625 0 1.219-.265.594-.281 1.219-.86z"/><text x="308.5" y="232.36" fill="#D9B8FF" font-family="Helvetica" font-size="17" textLength="357">azure_compute_virtual_machine_scale_set</text><rect width="478" height="39.789" x="361" y="306.37" fill="#3D176E" rx="2.5" ry="2.5" style="stroke:#000d19;stroke-width:.5"/><circle cx="376" cy="326.264" r="11" fill="#ADD1B2" style="stroke:#181818;stroke-width:1"/><path d="M378.969 331.905q-.578.297-1.219.438-.64.156-1.344.156-2.5 0-3.828-1.64-1.312-1.657-1.312-4.782t1.312-4.781q1.328-1.656 3.828-1.656.703 0 1.344.156.656.156 1.219.453v2.719q-.625-.579-1.219-.844-.594-.281-1.219-.281-1.344 0-2.031 1.078-.687 1.062-.687 3.156t.687 3.172q.688 1.062 2.031 1.062.625 0 1.219-.265.594-.281 1.219-.86z"/><text x="395" y="332.15" fill="#D9B8FF" font-family="Helvetica" font-size="17" textLength="436">azure_compute_virtual_machine_scale_set_instance</text><rect width="395" height="39.789" x="301.5" y="7" fill="#3D176E" rx="2.5" ry="2.5" style="stroke:#000d19;stroke-width:.5"/><circle cx="316.5" cy="26.895" r="11" fill="#ADD1B2" style="stroke:#181818;stroke-width:1"/><path d="M319.469 32.535q-.578.297-1.219.438-.64.156-1.344.156-2.5 0-3.828-1.64-1.312-1.657-1.312-4.782t1.312-4.781q1.328-1.656 3.828-1.656.703 0 1.344.156.656.156 1.219.453v2.719q-.625-.578-1.219-.844-.594-.281-1.219-.281-1.344 0-2.031 1.078-.687 1.062-.687 3.156t.687 3.172q.688 1.062 2.031 1.062.625 0 1.219-.265.594-.281 1.219-.86z"/><text x="335.5" y="32.78" fill="#D9B8FF" font-family="Helvetica" font-size="17" textLength="353">azure_container_service_managed_cluster</text><rect width="291" height="39.789" x="527.5" y="106.79" fill="#3D176E" rx="2.5" ry="2.5" style="stroke:#000d19;stroke-width:.5"/><circle cx="542.5" cy="126.684" r="11" fill="#ADD1B2" style="stroke:#181818;stroke-width:1"/><path d="M545.469 132.325q-.578.297-1.219.438-.64.156-1.344.156-2.5 0-3.828-1.64-1.312-1.657-1.312-4.782t1.312-4.781q1.328-1.656 3.828-1.656.703 0 1.344.156.656.156 1.219.453v2.719q-.625-.579-1.219-.844-.594-.281-1.219-.281-1.343 0-2.031 1.078-.687 1.062-.687 3.156t.687 3.172q.688 1.062 2.031 1.062.625 0 1.219-.265.594-.281 1.219-.86z"/><text x="561.5" y="132.57" fill="#D9B8FF" font-family="Helvetica" font-size="17" textLength="249">azure_network_load_balancer</text><rect width="233" height="39.789" x="755.5" y="7" fill="#3D176E" rx="2.5" ry="2.5" style="stroke:#000d19;stroke-width:.5"/><circle cx="770.5" cy="26.895" r="11" fill="#ADD1B2" style="stroke:#181818;stroke-width:1"/><path d="M773.469 32.535q-.578.297-1.219.438-.64.156-1.344.156-2.5 0-3.828-1.64-1.312-1.657-1.312-4.782t1.312-4.781q1.328-1.656 3.828-1.656.703 0 1.344.156.656.156 1.219.453v2.719q-.625-.578-1.219-.844-.594-.281-1.219-.281-1.343 0-2.031 1.078-.687 1.062-.687 3.156t.687 3.172q.688 1.062 2.031 1.062.625 0 1.219-.265.594-.281 1.219-.86z"/><text x="789.5" y="32.78" fill="#D9B8FF" font-family="Helvetica" font-size="17" textLength="191">azure_network_subnet</text><path fill="none" d="M265.37 147.01c45.58 17.14 106.204 39.937 151.754 57.077" style="stroke:#1a83af;stroke-width:2"/><path fill="#1A83AF" d="m422.74 206.2-7.015-6.913 2.335 5.152-5.152 2.335z" style="stroke:#1a83af;stroke-width:2"/><path fill="none" d="M215.41 146.83c3 26.4 12.38 73.68 41.59 99.54 29.74 26.33 111.802 45.272 191.212 58.522" style="stroke:#1a83af;stroke-width:2"/><path fill="#1A83AF" d="m454.13 305.88-8.219-5.427 3.287 4.604-4.604 3.287z" style="stroke:#1a83af;stroke-width:2"/><path fill="none" d="M498.89 246.8c22.09 17.14 49.45 38.37 71.53 55.51" style="stroke:#1a83af;stroke-width:2"/><path fill="#1A83AF" d="m575.16 305.99-4.657-8.678.707 5.612-5.612.707z" style="stroke:#1a83af;stroke-width:2"/><path fill="none" d="M496.56 47.2c-4.78 37.77-14.566 115.108-19.356 152.938" style="stroke:#1a83af;stroke-width:2"/><path fill="#1A83AF" d="m476.45 206.09 5.099-8.426-4.47 3.466-3.467-4.471z" style="stroke:#1a83af;stroke-width:2"/><path fill="none" d="M533.38 47.22c30.5 17.14 69.6 39.12 100.08 56.25" style="stroke:#1a83af;stroke-width:2"/><path fill="#1A83AF" d="m638.69 106.41-5.886-7.897 1.527 5.447-5.447 1.528z" style="stroke:#1a83af;stroke-width:2"/><path fill="none" d="M633.68 147.01c-34.88 17.14-80.195 39.403-115.065 56.543" style="stroke:#1a83af;stroke-width:2"/><path fill="#1A83AF" d="m513.23 206.2 9.841-.38-5.354-1.826 1.826-5.354z" style="stroke:#1a83af;stroke-width:2"/><path fill="none" d="M682.17 146.68c10.32 24.22 23.8 66.89 8.83 99.69-11.64 25.49-31.022 42.59-51.622 56.27" style="stroke:#1a83af;stroke-width:2"/><path fill="#1A83AF" d="m634.38 305.96 9.71-1.647-5.545-1.119 1.12-5.545z" style="stroke:#1a83af;stroke-width:2"/><path fill="none" d="M871.85 47c-1.28 26.36-7.69 73.59-35.85 99.58-29.6 27.32-110.962 45.871-192.402 58.631" style="stroke:#1a83af;stroke-width:2"/><path fill="#1A83AF" d="m637.67 206.14 9.51 2.559-4.57-3.333 3.332-4.57z" style="stroke:#1a83af;stroke-width:2"/><path fill="none" d="M877.99 46.93c6.58 24.63 14.12 68.13-2.99 99.65-45.43 83.69-143.267 132.18-209.527 157.21" style="stroke:#1a83af;stroke-width:2"/><path fill="#1A83AF" d="m659.86 305.91 9.833.561-5.156-2.328 2.329-5.155z" style="stroke:#1a83af;stroke-width:2"/><path fill="none" d="M832.68 47.22c-34.88 17.14-80.195 39.415-115.065 56.545" style="stroke:#1a83af;stroke-width:2"/><path fill="#1A83AF" d="m712.23 106.41 9.842-.378-5.354-1.827 1.826-5.353z" style="stroke:#1a83af;stroke-width:2"/></svg>
